X: 24149
T: Looking For The Bookstore
R: slip jig
M: 9/8
K: Dmixolydian
|:~c2A BAG ADD|ADD BDd BAG|~A2F GFD CDE|FDD GDc BAG:|
|:ADD DAG EFG|ADD BGd BAG|cGG dGc BAG|AEE BEc BAG:|
|:Add fed gfd|~a2f gfd edB|~c2A BAG DE/F/G|1 ADB DcD BAG:|2 ADB DcD de/f/g||
|:~a3 de/f/g agf|~e2g feg fed|~c2e dce dcB|1 ~A2B cBA de/f/g:|2 ~A2B cBA dcB||

